;FLAVOR:Marlin
;TIME:19028
;Filament used: 30.2765m
;Layer height: 0.2
;MINX:116.6
;MINY:141.5
;MINZ:0.2
;MAXX:285.4
;MAXY:257.9
;MAXZ:50
;TARGET_MACHINE.NAME:Anycubic Kobra Max
;Generated with Cura_SteamEngine 5.10.0
M140 S60
M105
M190 S60
M104 S195
M105
M109 S195
G28 ;Home
G1 Z15.0 F1200 ;Move the platform down 15mm
;Prime the extruder
G92 E0
G1 F200 E3
G92 E0
M82 ;absolute extrusion mode
G92 E0
G92 E0
G1 F2400 E-6
;LAYER_COUNT:250
;LAYER:0
M107
M204 S3000
M205 X10 Y10
G1 F1200 Z0.275
G0 F6000 X147.927 Y145.363 Z0.275
M204 S1000
M205 X8 Y8
;TYPE:SKIRT
G1 F1200 Z0.2
G1 F2400 E0
G1 X148.53 Y144.877 E0.04111
G1 X149.042 Y144.576 E0.07264
G1 X149.685 Y144.308 E0.10962
G1 X150.349 Y144.161 E0.14572
G1 X150.917 Y144.105 E0.17602
G1 X167.157 Y144.1 E1.03809
G1 X169.951 Y144.06 E1.18642
G1 X172.6 Y143.947 E1.32716
G1 X175.347 Y143.753 E1.47334
G1 X178.045 Y143.486 E1.61726
G1 X180.665 Y143.15 E1.75748
G1 X183.335 Y142.73 E1.90095
G1 X186.004 Y142.234 E2.04506
G1 X187.39 Y141.926 E2.12043
G1 X187.672 Y141.884 E2.13556
G1 X188.943 Y141.613 E2.20455
G1 X189.782 Y141.518 E2.24937
G1 X190.848 Y141.5 E2.30596
G1 X192.279 Y141.512 E2.38193
G1 X194.264 Y141.661 E2.48759
G1 X196.999 Y141.814 E2.633
G1 X199.746 Y141.89 E2.77888
G1 X202.398 Y141.888 E2.91965
G1 X205.141 Y141.808 E3.06532
G1 X209.924 Y141.5 E3.31975
G1 X211.549 Y141.501 E3.40601
G1 X212.358 Y141.52 E3.44896
G1 X213.112 Y141.614 E3.4893
G1 X214.561 Y141.93 E3.56802
G1 X217.294 Y142.48 E3.71601
G1 X219.943 Y142.936 E3.85869
G1 X222.611 Y143.318 E4.00176
G1 X225.29 Y143.623 E4.14489
G1 X227.994 Y143.856 E4.28896
G1 X230.68 Y144.009 E4.43177
G1 X233.437 Y144.089 E4.57819
G1 X234.848 Y144.1 E4.65309
G1 X250.364 Y144.1 E5.47673
G1 X251.149 Y144.115 E5.5184
G1 X251.739 Y144.177 E5.5499
G1 X252.321 Y144.32 E5.58171
G1 X253.044 Y144.614 E5.62314
G1 X253.614 Y144.981 E5.65913
G1 X254.137 Y145.428 E5.69565
G1 X254.525 Y145.893 E5.7278
G1 X254.935 Y146.55 E5.76891
G1 X255.159 Y147.107 E5.80077
G1 X255.351 Y147.924 E5.84532
G1 X255.395 Y148.419 E5.8717
G1 X255.4 Y152.053 E6.06461
G1 X255.44 Y154.831 E6.21209
G1 X255.553 Y157.48 E6.35283
G1 X255.747 Y160.227 E6.49902
G1 X256.01 Y162.893 E6.64122
G1 X256.35 Y165.549 E6.78336
G1 X256.77 Y168.215 E6.92663
G1 X257.269 Y170.912 E7.07222
G1 X257.836 Y173.543 E7.21509
G1 X258.476 Y176.154 E7.35779
G1 X259.201 Y178.79 E7.50292
G1 X259.982 Y181.34 E7.64449
G1 X260.863 Y183.951 E7.79076
G1 X261.779 Y186.434 E7.93125
G1 X262.8 Y188.977 E8.07672
G1 X263.863 Y191.423 E8.21829
G1 X265.013 Y193.877 E8.36215
G1 X266.241 Y196.317 E8.50715
G1 X267.531 Y198.706 E8.65127
G1 X268.854 Y201.001 E8.79189
G1 X270.292 Y203.339 E8.9376
G1 X271.777 Y205.609 E9.08159
G1 X273.307 Y207.805 E9.22366
G1 X274.912 Y209.978 E9.36707
G1 X276.6 Y212.131 E9.51229
G1 X278.3 Y214.178 E9.65354
G1 X280.11 Y216.237 E9.79907
G1 X281.951 Y218.217 E9.94258
G1 X284.149 Y220.445 E10.10872
G1 X284.595 Y220.981 E10.14573
G1 X284.958 Y221.609 E10.18424
G1 X285.179 Y222.166 E10.21605
G1 X285.347 Y222.898 E10.25591
G1 X285.396 Y223.433 E10.28443
G1 X285.4 Y252.82 E11.84439
G1 X285.387 Y253.634 E11.8876
G1 X285.327 Y254.223 E11.91903
G1 X285.187 Y254.806 E11.95086
G1 X284.895 Y255.532 E11.9924
G1 X284.469 Y256.182 E12.03365
G1 X284.071 Y256.63 E12.06546
G1 X283.545 Y257.07 E12.10186
G1 X282.884 Y257.461 E12.14263
G1 X282.328 Y257.687 E12.17449
G1 X281.591 Y257.849 E12.21455
G1 X281.086 Y257.895 E12.24146
G1 X121.65 Y257.9 E20.70483
G1 X120.865 Y257.887 E20.74651
G1 X120.355 Y257.84 E20.7737
G1 X119.61 Y257.66 E20.81438
G1 X119.056 Y257.431 E20.8462
G1 X118.467 Y257.079 E20.88263
G1 X117.905 Y256.61 E20.92148
G1 X117.487 Y256.123 E20.95555
G1 X117.098 Y255.508 E20.99418
G1 X116.814 Y254.829 E21.03325
G1 X116.651 Y254.09 E21.07342
G1 X116.605 Y253.583 E21.10044
G1 X116.6 Y224.143 E22.66321
G1 X116.614 Y223.351 E22.70526
G1 X116.662 Y222.842 E22.7324
G1 X116.838 Y222.092 E22.7733
G1 X117.075 Y221.539 E22.80523
G1 X117.478 Y220.885 E22.84601
G1 X117.891 Y220.4 E22.87983
G1 X119.116 Y219.169 E22.97201
G1 X120.949 Y217.255 E23.11269
G1 X122.785 Y215.226 E23.25795
G1 X124.553 Y213.158 E23.40237
G1 X126.233 Y211.076 E23.54438
G1 X127.903 Y208.88 E23.69083
G1 X129.458 Y206.713 E23.83242
G1 X130.961 Y204.488 E23.97495
G1 X132.419 Y202.193 E24.11928
G1 X133.811 Y199.855 E24.26372
G1 X135.11 Y197.531 E24.40505
G1 X136.369 Y195.119 E24.54948
G1 X137.558 Y192.676 E24.6937
G1 X138.675 Y190.198 E24.83799
G1 X139.709 Y187.729 E24.98008
G1 X140.699 Y185.158 E25.12633
G1 X141.585 Y182.649 E25.26757
G1 X142.408 Y180.087 E25.41042
G1 X143.172 Y177.46 E25.55564
G1 X143.846 Y174.868 E25.69781
G1 X144.455 Y172.228 E25.84163
G1 X144.993 Y169.544 E25.98694
G1 X145.448 Y166.889 E26.12993
G1 X145.828 Y164.226 E26.27272
G1 X146.129 Y161.561 E26.41509
G1 X146.36 Y158.858 E26.5591
G1 X146.512 Y156.172 E26.70191
G1 X146.59 Y153.416 E26.84826
G1 X146.6 Y152.06 E26.92025
G1 X146.6 Y149.108 E27.07695
G1 X146.615 Y148.349 E27.11724
G1 X146.692 Y147.674 E27.15331
G1 X146.844 Y147.1 E27.18483
G1 X147.11 Y146.464 E27.22142
G1 X147.479 Y145.888 E27.25774
G1 X147.927 Y145.363 E27.29437
M204 S3000
M205 X10 Y10
G0 F6000 X148.321 Y145.765
M204 S1000
M205 X8 Y8
G1 F2400 X148.819 Y145.357 E27.32855
G1 X149.258 Y145.093 E27.35574
G1 X149.855 Y144.844 E27.39008
G1 X150.47 Y144.708 E27.42351
G1 X150.967 Y144.663 E27.45
G1 X167.165 Y144.66 E28.30984
G1 X169.959 Y144.62 E28.45817
G1 X172.639 Y144.506 E28.60056
G1 X175.386 Y144.312 E28.74675
G1 X178.1 Y144.043 E28.89152
G1 X180.754 Y143.703 E29.03355
G1 X183.437 Y143.281 E29.17773
G1 X186.118 Y142.783 E29.32248
G1 X187.512 Y142.473 E29.39828
G1 X187.778 Y142.434 E29.41255
G1 X189.06 Y142.161 E29.48213
G1 X189.792 Y142.078 E29.52124
G1 X190.843 Y142.06 E29.57704
G1 X192.274 Y142.072 E29.653
G1 X194.233 Y142.22 E29.75729
G1 X196.984 Y142.374 E29.90355
G1 X199.731 Y142.45 E30.04942
G1 X202.414 Y142.448 E30.19185
G1 X205.165 Y142.368 E30.33794
G1 X209.924 Y142.06 E30.59109
G1 X211.538 Y142.061 E30.67677
G1 X212.291 Y142.076 E30.71675
G1 X212.993 Y142.161 E30.75428
G1 X214.451 Y142.479 E30.8335
G1 X217.199 Y143.032 E30.98229
G1 X219.848 Y143.488 E31.12498
G1 X222.538 Y143.873 E31.26923
G1 X225.242 Y144.181 E31.41369
G1 X227.949 Y144.414 E31.55792
G1 X230.664 Y144.569 E31.70228
G1 X233.421 Y144.649 E31.84869
G1 X234.844 Y144.66 E31.92423
G1 X250.354 Y144.66 E32.74755
G1 X251.096 Y144.673 E32.78694
G1 X251.605 Y144.721 E32.81408
G1 X252.187 Y144.864 E32.84589
G1 X252.782 Y145.112 E32.88011
G1 X253.25 Y145.407 E32.90948
G1 X253.738 Y145.824 E32.94355
G1 X254.095 Y146.252 E32.97314
G1 X254.432 Y146.801 E33.00733
G1 X254.639 Y147.316 E33.0368
G1 X254.793 Y147.974 E33.07267
G1 X254.837 Y148.469 E33.09905
G1 X254.84 Y152.053 E33.2893
G1 X254.88 Y154.839 E33.43721
G1 X254.994 Y157.519 E33.5796
G1 X255.188 Y160.266 E33.72578
G1 X255.455 Y162.964 E33.8697
G1 X255.797 Y165.636 E34.01269
G1 X256.219 Y168.317 E34.15676
G1 X256.719 Y171.014 E34.30237
G1 X257.292 Y173.676 E34.44691
G1 X257.936 Y176.303 E34.59049
G1 X258.661 Y178.939 E34.73561
G1 X259.451 Y181.519 E34.87884
G1 X260.332 Y184.13 E35.02512
G1 X261.259 Y186.643 E35.1673
G1 X262.286 Y189.2 E35.31358
G1 X263.356 Y191.661 E35.45603
G1 X264.513 Y194.129 E35.60072
G1 X265.748 Y196.583 E35.74655
G1 X267.046 Y198.986 E35.89153
G1 X268.369 Y201.281 E36.03215
G1 X269.823 Y203.646 E36.17952
G1 X271.309 Y205.916 E36.32354
G1 X272.857 Y208.138 E36.46729
G1 X274.471 Y210.323 E36.61149
G1 X276.169 Y212.489 E36.75759
G1 X277.879 Y214.548 E36.89967
G1 X279.689 Y216.607 E37.04519
G1 X281.552 Y218.61 E37.1904
G1 X283.75 Y220.838 E37.35653
G1 X284.133 Y221.301 E37.38843
G1 X284.437 Y221.816 E37.42018
G1 X284.658 Y222.373 E37.45199
G1 X284.789 Y222.949 E37.48334
G1 X284.838 Y223.484 E37.51186
G1 X284.84 Y252.812 E39.06868
G1 X284.829 Y253.583 E39.10962
G1 X284.782 Y254.092 E39.13675
G1 X284.642 Y254.675 E39.16858
G1 X284.396 Y255.272 E39.20285
G1 X284.05 Y255.81 E39.23681
G1 X283.652 Y256.258 E39.26862
G1 X283.19 Y256.637 E39.30034
G1 X282.673 Y256.942 E39.3322
G1 X282.159 Y257.151 E39.36166
G1 X281.54 Y257.291 E39.39535
G1 X281.035 Y257.337 E39.42226
G1 X121.658 Y257.34 E47.8825
G1 X120.916 Y257.329 E47.92189
G1 X120.406 Y257.282 E47.94908
G1 X119.824 Y257.142 E47.98086
G1 X119.27 Y256.913 E48.01268
G1 X118.759 Y256.601 E48.04446
G1 X118.302 Y256.212 E48.07632
G1 X117.912 Y255.758 E48.10809
G1 X117.597 Y255.25 E48.13982
G1 X117.349 Y254.657 E48.17394
G1 X117.209 Y254.039 E48.20757
G1 X117.163 Y253.532 E48.2346
G1 X117.16 Y224.152 E49.79418
G1 X117.172 Y223.404 E49.83389
G1 X117.22 Y222.895 E49.86103
G1 X117.37 Y222.272 E49.89505
G1 X117.59 Y221.76 E49.92463
G1 X117.952 Y221.183 E49.96079
G1 X118.288 Y220.795 E49.98803
G1 X119.513 Y219.564 E50.08022
G1 X121.364 Y217.631 E50.22229
G1 X123.211 Y215.59 E50.36841
G1 X124.979 Y213.522 E50.51283
G1 X126.669 Y211.428 E50.65567
G1 X128.349 Y209.219 E50.80299
G1 X129.913 Y207.04 E50.94537
G1 X131.434 Y204.788 E51.08963
G1 X132.892 Y202.493 E51.23396
G1 X134.3 Y200.128 E51.38007
G1 X135.607 Y197.79 E51.52225
G1 X136.865 Y195.378 E51.66665
G1 X138.069 Y192.906 E51.81261
G1 X139.186 Y190.428 E51.9569
G1 X140.226 Y187.945 E52.0998
G1 X141.222 Y185.359 E52.2469
G1 X142.113 Y182.835 E52.38899
G1 X142.946 Y180.243 E52.53351
G1 X143.71 Y177.616 E52.67874
G1 X144.392 Y174.994 E52.82255
G1 X145.001 Y172.354 E52.96637
G1 X145.542 Y169.654 E53.11255
G1 X146 Y166.984 E53.25635
G1 X146.382 Y164.305 E53.4
G1 X146.687 Y161.609 E53.54402
G1 X146.918 Y158.906 E53.68803
G1 X147.072 Y156.188 E53.83254
G1 X147.15 Y153.432 E53.9789
G1 X147.16 Y152.064 E54.05152
G1 X147.16 Y149.117 E54.20795
G1 X147.172 Y148.408 E54.24559
G1 X147.235 Y147.812 E54.27741
G1 X147.361 Y147.316 E54.30457
G1 X147.609 Y146.723 E54.33869
G1 X147.905 Y146.252 E54.36822
G1 X148.321 Y145.765 E54.40222
M204 S3000
M205 X10 Y10
G0 F6000 X148.716 Y146.165
M204 S1000
M205 X8 Y8
G1 F2400 X149.108 Y145.837 E54.42935
G1 X149.547 Y145.573 E54.45655
G1 X150.022 Y145.381 E54.48374
G1 X150.52 Y145.266 E54.51087
G1 X151.017 Y145.221 E54.53736
G1 X167.173 Y145.22 E55.39498
G1 X169.967 Y145.18 E55.5433
G1 X172.678 Y145.065 E55.68734
G1 X175.425 Y144.871 E55.83353
G1 X178.155 Y144.6 E55.97915
G1 X180.843 Y144.256 E56.12301
G1 X183.539 Y143.832 E56.26788
G1 X186.232 Y143.332 E56.41327
G1 X187.634 Y143.02 E56.48952
G1 X187.885 Y142.984 E56.50298
G1 X189.177 Y142.709 E56.5731
G1 X189.802 Y142.638 E56.60649
G1 X190.838 Y142.62 E56.66149
G1 X192.269 Y142.632 E56.73745
G1 X194.202 Y142.779 E56.84036
G1 X196.969 Y142.934 E56.98747
G1 X199.716 Y143.01 E57.13335
G1 X202.43 Y143.008 E57.27741
G1 X205.189 Y142.928 E57.42393
G1 X209.924 Y142.62 E57.67581
G1 X211.529 Y142.621 E57.76101
G1 X212.226 Y142.632 E57.79801
G1 X212.874 Y142.708 E57.83265
G1 X214.34 Y143.028 E57.9123
G1 X217.096 Y143.583 E58.06154
G1 X219.753 Y144.04 E58.20465
G1 X222.465 Y144.428 E58.35008
G1 X225.194 Y144.739 E58.49588
G1 X227.904 Y144.972 E58.64026
G1 X230.648 Y145.129 E58.78616
G1 X233.405 Y145.209 E58.93257
G1 X234.84 Y145.22 E59.00875
G1 X250.345 Y145.22 E59.8318
G1 X251.043 Y145.231 E59.86886
G1 X251.552 Y145.279 E59.896
G1 X252.048 Y145.406 E59.92318
G1 X252.518 Y145.608 E59.95034
G1 X252.951 Y145.881 E59.97751
G1 X253.337 Y146.218 E60.00471
G1 X253.665 Y146.611 E60.03188
G1 X253.928 Y147.05 E60.05905
G1 X254.119 Y147.525 E60.08622
G1 X254.235 Y148.024 E60.11342
G1 X254.279 Y148.519 E60.1398
G1 X254.28 Y152.053 E60.32739
G1 X254.32 Y154.847 E60.47572
G1 X254.435 Y157.558 E60.61976
G1 X254.629 Y160.305 E60.76594
G1 X254.9 Y163.035 E60.91157
G1 X255.244 Y165.723 E61.05542
G1 X255.668 Y168.419 E61.2003
G1 X256.169 Y171.116 E61.34591
G1 X256.748 Y173.809 E61.49213
G1 X257.396 Y176.452 E61.63658
G1 X258.121 Y179.088 E61.78171
G1 X258.92 Y181.698 E61.9266
G1 X259.801 Y184.309 E62.07288
G1 X260.739 Y186.852 E62.21676
G1 X261.772 Y189.423 E62.36384
G1 X262.849 Y191.899 E62.50717
G1 X264.013 Y194.381 E62.65269
G1 X265.255 Y196.849 E62.79935
G1 X266.561 Y199.266 E62.94519
G1 X267.884 Y201.561 E63.08581
G1 X269.355 Y203.953 E63.23487
G1 X270.85 Y206.236 E63.37973
G1 X272.407 Y208.471 E63.52432
G1 X274.03 Y210.668 E63.66932
G1 X275.738 Y212.847 E63.81629
G1 X277.458 Y214.918 E63.95919
G1 X279.268 Y216.977 E64.10472
G1 X281.154 Y219.004 E64.25169
G1 X283.323 Y221.2 E64.41553
G1 X283.654 Y221.591 E64.44273
G1 X283.919 Y222.029 E64.4699
G1 X284.113 Y222.502 E64.49704
G1 X284.231 Y223 E64.52421
G1 X284.28 Y223.535 E64.55273
G1 X284.28 Y252.805 E66.10647
G1 X284.271 Y253.532 E66.14507
G1 X284.224 Y254.041 E66.1722
G1 X284.099 Y254.538 E66.1994
G1 X283.899 Y255.009 E66.22657
G1 X283.627 Y255.443 E66.25376
G1 X283.292 Y255.829 E66.28089
G1 X282.9 Y256.158 E66.30805
G1 X282.462 Y256.423 E66.33523
G1 X281.988 Y256.616 E66.36239
G1 X281.489 Y256.733 E66.3896
G1 X280.984 Y256.779 E66.41652
G1 X121.665 Y256.78 E74.87368
G1 X120.967 Y256.771 E74.91073
G1 X120.457 Y256.724 E74.93792
G1 X119.961 Y256.599 E74.96507
G1 X119.49 Y256.398 E74.99226
G1 X119.056 Y256.126 E75.01944
G1 X118.67 Y255.79 E75.04661
G1 X118.341 Y255.398 E75.07378
G1 X118.076 Y254.96 E75.10095
G1 X117.884 Y254.486 E75.1281
G1 X117.767 Y253.988 E75.15525
G1 X117.721 Y253.481 E75.18228
G1 X117.72 Y224.16 E76.73873
G1 X117.73 Y223.457 E76.77605
G1 X117.778 Y222.948 E76.80319
G1 X117.903 Y222.452 E76.83034
G1 X118.105 Y221.981 E76.85755
G1 X118.377 Y221.548 E76.88469
G1 X118.685 Y221.19 E76.90976
G1 X119.91 Y219.959 E77.00195
G1 X121.779 Y218.007 E77.1454
G1 X123.637 Y215.954 E77.29239
G1 X125.405 Y213.886 E77.43681
G1 X127.105 Y211.78 E77.58048
G1 X128.795 Y209.558 E77.72867
G1 X130.368 Y207.367 E77.87185
G1 X131.907 Y205.088 E78.01783
G1 X133.365 Y202.793 E78.16216
G1 X134.781 Y200.415 E78.30907
G1 X136.096 Y198.063 E78.45211
G1 X137.369 Y195.623 E78.59821
G1 X138.572 Y193.151 E78.74414
G1 X139.703 Y190.644 E78.89014
G1 X140.743 Y188.161 E79.03304
G1 X141.745 Y185.56 E79.181
G1 X142.641 Y183.021 E79.32392
G1 X143.484 Y180.399 E79.47012
G1 X144.248 Y177.772 E79.61535
G1 X144.938 Y175.12 E79.76081
G1 X145.547 Y172.48 E79.90463
G1 X146.091 Y169.764 E80.05167
G1 X146.552 Y167.079 E80.19628
G1 X146.936 Y164.384 E80.34079
G1 X147.245 Y161.657 E80.48647
G1 X147.476 Y158.954 E80.63048
G1 X147.632 Y156.204 E80.77669
G1 X147.71 Y153.448 E80.92305
G1 X147.72 Y152.068 E80.9963
G1 X147.72 Y149.125 E81.15253
G1 X147.73 Y148.46 E81.18783
G1 X147.778 Y147.95 E81.21502
G1 X147.904 Y147.454 E81.24219
G1 X148.106 Y146.984 E81.26935
G1 X148.379 Y146.55 E81.29656
G1 X148.716 Y146.165 E81.32372
M204 S3000
M205 X10 Y10
G1 F2400 E75.32372
G0 F6000 X188.452 Y146.906
M204 S1000
M205 X8 Y8
G1 F2400 E81.32372
G1 X188.613 Y146.728 E81.33646
G1 X188.993 Y146.465 E81.361
G1 X189.806 Y146.203 E81.40634
G1 X189.961 Y146.18 E81.41466
G1 X192.099 Y146.181 E81.52815
G1 X193.028 Y146.426 E81.57915
G1 X193.436 Y146.683 E81.60474
G1 X193.567 Y146.847 E81.61589
G1 X193.761 Y147.328 E81.64342
G1 X193.586 Y147.398 E81.65342
G1 X193.459 Y147.52 E81.66277
G1 X188.665 Y147.52 E81.91725
G1 X188.528 Y147.394 E81.92713
G1 X188.339 Y147.32 E81.93791
G1 X188.332 Y147.32 E81.93828
G1 X188.344 Y147.154 E81.94711
G1 X188.452 Y146.906 E81.96147
M204 S3000
M205 X10 Y10
G0 F6000 X189.281 Y146.96
M204 S1000
M205 X8 Y8
G1 F2400 X189.931 Y146.751 E81.99772
G1 X190.004 Y146.74 E82.00163
G1 X192.028 Y146.741 E82.10907
G1 X192.801 Y146.945 E82.15151
G1 X192.825 Y146.96 E82.15302
G1 X189.281 Y146.96 E82.34114
M204 S3000
M205 X10 Y10
G1 F2400 E76.34114
G0 F6000 X208.406 Y147.32
M204 S1000
M205 X8 Y8
G1 F2400 E82.34114
G1 X208.569 Y146.964 E82.36193
G1 X208.83 Y146.654 E82.38344
G1 X208.958 Y146.564 E82.39174
G1 X209.681 Y146.23 E82.43402
G1 X209.864 Y146.18 E82.44409
G1 X212.133 Y146.182 E82.56454
G1 X213.028 Y146.463 E82.61433
G1 X213.448 Y146.749 E82.64131
G1 X213.62 Y146.971 E82.65621
G1 X213.665 Y147.082 E82.66257
G1 X213.705 Y147.332 E82.67601
G1 X213.563 Y147.383 E82.68402
G1 X213.396 Y147.52 E82.69549
G1 X208.854 Y147.52 E82.93659
G1 X208.639 Y147.37 E82.95051
G1 X208.479 Y147.32 E82.9594
G1 X208.406 Y147.32 E82.96328
M204 S3000
M205 X10 Y10
G0 F6000 X209.437 Y146.96
M204 S1000
M205 X8 Y8
