;FLAVOR:Marlin
;TIME:10804
;Filament used: 14.8567m
;Layer height: 0.2
;MINX:20.509
;MINY:30.703
;MINZ:0.2
;MAXX:185.309
;MAXY:144.503
;MAXZ:38
;TARGET_MACHINE.NAME:Anycubic Kobra Max
;Generated with Cura_SteamEngine 5.10.0
M140 S60
M105
M190 S60
M104 S195
M105
M109 S195
G28 ;Home
G1 Z15.0 F1200 ;Move the platform down 15mm
;Prime the extruder
G92 E0
G1 F200 E3
G92 E0
M82 ;absolute extrusion mode
G92 E0
G92 E0
G1 F2400 E-6
;LAYER_COUNT:190
;LAYER:0
M107
M204 S3000
M205 X10 Y10
G1 F1200 Z0.275
G0 F6000 X51.019 Y33.067 Z0.275
M204 S1000
M205 X8 Y8
;TYPE:SKIRT
G1 F1200 Z0.2
G1 F2400 E0
G1 X51.388 Y32.491 E0.03631
G1 X51.836 Y31.966 E0.07295
G1 X52.439 Y31.48 E0.11406
G1 X52.951 Y31.179 E0.14559
G1 X53.594 Y30.911 E0.18257
G1 X54.258 Y30.764 E0.21867
G1 X54.826 Y30.708 E0.24896
G1 X150.266 Y30.703 E5.31522
G1 X151.058 Y30.718 E5.35727
G1 X151.654 Y30.781 E5.38909
G1 X152.317 Y30.951 E5.42542
G1 X152.99 Y31.24 E5.4643
G1 X153.598 Y31.641 E5.50296
G1 X154.077 Y32.068 E5.53702
G1 X154.531 Y32.631 E5.57541
G1 X154.832 Y33.143 E5.60694
G1 X155.097 Y33.779 E5.64352
G1 X155.259 Y34.521 E5.68383
G1 X155.304 Y35.02 E5.71043
G1 X155.309 Y38.656 E5.90344
G1 X155.349 Y41.434 E6.05092
G1 X155.462 Y44.083 E6.19166
G1 X155.656 Y46.83 E6.33785
G1 X155.919 Y49.496 E6.48005
G1 X156.259 Y52.152 E6.62219
G1 X156.679 Y54.818 E6.76546
G1 X157.178 Y57.515 E6.91105
G1 X157.745 Y60.146 E7.05392
G1 X158.385 Y62.757 E7.19662
G1 X159.11 Y65.393 E7.34175
G1 X159.891 Y67.943 E7.48332
G1 X160.772 Y70.554 E7.62959
G1 X161.688 Y73.037 E7.77008
G1 X162.709 Y75.58 E7.91555
G1 X163.772 Y78.026 E8.05712
G1 X164.922 Y80.48 E8.20098
G1 X166.15 Y82.92 E8.34598
G1 X167.44 Y85.309 E8.4901
G1 X168.763 Y87.604 E8.63072
G1 X170.201 Y89.942 E8.77643
G1 X171.686 Y92.212 E8.92042
G1 X173.216 Y94.408 E9.06249
G1 X174.821 Y96.581 E9.2059
G1 X176.509 Y98.734 E9.35112
G1 X178.209 Y100.781 E9.49237
G1 X180.019 Y102.84 E9.6379
G1 X181.86 Y104.82 E9.78141
G1 X184.058 Y107.048 E9.94755
G1 X184.504 Y107.584 E9.98456
G1 X184.867 Y108.212 E10.02307
G1 X185.088 Y108.769 E10.05488
G1 X185.256 Y109.501 E10.09474
G1 X185.305 Y110.036 E10.12326
G1 X185.309 Y139.423 E11.68322
G1 X185.296 Y140.237 E11.72643
G1 X185.236 Y140.826 E11.75786
G1 X185.096 Y141.409 E11.78969
G1 X184.804 Y142.135 E11.83123
G1 X184.378 Y142.785 E11.87248
G1 X183.98 Y143.233 E11.90429
G1 X183.454 Y143.673 E11.94069
G1 X182.793 Y144.064 E11.98146
G1 X182.237 Y144.29 E12.01332
G1 X181.5 Y144.452 E12.05338
G1 X180.995 Y144.498 E12.0803
G1 X25.559 Y144.503 E20.33133
G1 X24.774 Y144.49 E20.37301
G1 X24.264 Y144.443 E20.40019
G1 X23.519 Y144.263 E20.44088
G1 X22.965 Y144.034 E20.4727
G1 X22.376 Y143.682 E20.50913
G1 X21.814 Y143.213 E20.54798
G1 X21.396 Y142.726 E20.58205
G1 X21.007 Y142.111 E20.62068
G1 X20.723 Y141.432 E20.65975
G1 X20.56 Y140.693 E20.69992
G1 X20.514 Y140.186 E20.72694
G1 X20.509 Y110.746 E22.28971
G1 X20.523 Y109.954 E22.33176
G1 X20.571 Y109.445 E22.3589
G1 X20.747 Y108.695 E22.39979
G1 X20.984 Y108.142 E22.43173
G1 X21.387 Y107.488 E22.47251
G1 X21.8 Y107.003 E22.50632
G1 X23.025 Y105.772 E22.59851
G1 X24.858 Y103.858 E22.73919
G1 X26.694 Y101.829 E22.88444
G1 X28.462 Y99.761 E23.02887
G1 X30.142 Y97.679 E23.17088
G1 X31.812 Y95.483 E23.31733
G1 X33.367 Y93.316 E23.45891
G1 X34.87 Y91.091 E23.60145
G1 X36.328 Y88.796 E23.74578
G1 X37.72 Y86.458 E23.89022
G1 X39.019 Y84.134 E24.03155
G1 X40.278 Y81.722 E24.17598
G1 X41.467 Y79.279 E24.3202
G1 X42.584 Y76.801 E24.46449
G1 X43.618 Y74.332 E24.60658
G1 X44.608 Y71.761 E24.75283
G1 X45.494 Y69.252 E24.89407
G1 X46.317 Y66.69 E25.03692
G1 X47.081 Y64.063 E25.18214
G1 X47.755 Y61.471 E25.32431
G1 X48.364 Y58.831 E25.46813
G1 X48.902 Y56.147 E25.61344
G1 X49.357 Y53.492 E25.75643
G1 X49.737 Y50.829 E25.89922
G1 X50.038 Y48.164 E26.04159
G1 X50.269 Y45.461 E26.18559
G1 X50.421 Y42.775 E26.3284
G1 X50.499 Y40.019 E26.47476
G1 X50.509 Y38.663 E26.54674
G1 X50.509 Y35.711 E26.70344
G1 X50.524 Y34.952 E26.74374
G1 X50.601 Y34.277 E26.77981
G1 X50.753 Y33.703 E26.81133
G1 X51.019 Y33.067 E26.84792
M204 S3000
M205 X10 Y10
G0 F6000 X51.518 Y33.326
M204 S1000
M205 X8 Y8
G1 F2400 X51.814 Y32.855 E26.87745
G1 X52.23 Y32.368 E26.91145
G1 X52.728 Y31.96 E26.94562
G1 X53.167 Y31.696 E26.97282
G1 X53.764 Y31.447 E27.00715
G1 X54.379 Y31.311 E27.04059
G1 X54.876 Y31.266 E27.06708
G1 X150.257 Y31.263 E32.1302
G1 X150.999 Y31.275 E32.1696
G1 X151.595 Y31.338 E32.20141
G1 X152.173 Y31.492 E32.23316
G1 X152.721 Y31.734 E32.26496
G1 X153.225 Y32.059 E32.2968
G1 X153.671 Y32.457 E32.32853
G1 X154.051 Y32.92 E32.36032
G1 X154.315 Y33.359 E32.38752
G1 X154.562 Y33.951 E32.42157
G1 X154.701 Y34.571 E32.4553
G1 X154.746 Y35.07 E32.48189
G1 X154.749 Y38.656 E32.67225
G1 X154.789 Y41.442 E32.82015
G1 X154.903 Y44.122 E32.96255
G1 X155.097 Y46.869 E33.10873
G1 X155.364 Y49.567 E33.25265
G1 X155.706 Y52.239 E33.39564
G1 X156.128 Y54.92 E33.53971
G1 X156.628 Y57.617 E33.68531
G1 X157.201 Y60.279 E33.82986
G1 X157.845 Y62.906 E33.97344
G1 X158.57 Y65.542 E34.11856
G1 X159.36 Y68.122 E34.26179
G1 X160.241 Y70.733 E34.40807
G1 X161.168 Y73.246 E34.55025
G1 X162.195 Y75.803 E34.69653
G1 X163.265 Y78.264 E34.83898
G1 X164.422 Y80.732 E34.98367
G1 X165.657 Y83.186 E35.1295
G1 X166.955 Y85.589 E35.27448
G1 X168.278 Y87.884 E35.4151
G1 X169.732 Y90.249 E35.56247
G1 X171.218 Y92.519 E35.70649
G1 X172.766 Y94.741 E35.85024
G1 X174.38 Y96.926 E35.99444
G1 X176.078 Y99.092 E36.14054
G1 X177.788 Y101.151 E36.28261
G1 X179.598 Y103.21 E36.42814
G1 X181.461 Y105.213 E36.57335
G1 X183.659 Y107.441 E36.73948
G1 X184.042 Y107.904 E36.77138
G1 X184.346 Y108.419 E36.80312
G1 X184.567 Y108.976 E36.83493
G1 X184.698 Y109.552 E36.86629
G1 X184.747 Y110.087 E36.89481
G1 X184.749 Y139.415 E38.45163
G1 X184.738 Y140.186 E38.49256
G1 X184.691 Y140.695 E38.5197
G1 X184.551 Y141.278 E38.55153
G1 X184.305 Y141.875 E38.5858
G1 X183.959 Y142.413 E38.61976
G1 X183.561 Y142.861 E38.65157
G1 X183.099 Y143.24 E38.68329
G1 X182.582 Y143.545 E38.71515
G1 X182.068 Y143.754 E38.74461
G1 X181.449 Y143.894 E38.77829
G1 X180.944 Y143.94 E38.80521
G1 X25.567 Y143.943 E47.05312
G1 X24.825 Y143.932 E47.09251
G1 X24.315 Y143.885 E47.1197
G1 X23.733 Y143.745 E47.15147
G1 X23.179 Y143.516 E47.18329
G1 X22.668 Y143.204 E47.21507
G1 X22.211 Y142.815 E47.24693
G1 X21.821 Y142.361 E47.2787
G1 X21.506 Y141.853 E47.31043
G1 X21.258 Y141.26 E47.34455
G1 X21.118 Y140.642 E47.37819
G1 X21.072 Y140.135 E47.40521
G1 X21.069 Y110.755 E48.9648
G1 X21.081 Y110.007 E49.00451
G1 X21.129 Y109.498 E49.03165
G1 X21.279 Y108.875 E49.06566
G1 X21.499 Y108.363 E49.09524
G1 X21.861 Y107.786 E49.1314
G1 X22.197 Y107.398 E49.15865
G1 X23.422 Y106.167 E49.25084
G1 X25.273 Y104.234 E49.3929
G1 X27.12 Y102.193 E49.53902
G1 X28.888 Y100.125 E49.68345
G1 X30.578 Y98.031 E49.82629
G1 X32.258 Y95.822 E49.97361
G1 X33.822 Y93.643 E50.11599
G1 X35.343 Y91.391 E50.26024
G1 X36.801 Y89.096 E50.40458
G1 X38.209 Y86.731 E50.55068
G1 X39.516 Y84.393 E50.69287
G1 X40.774 Y81.981 E50.83727
G1 X41.978 Y79.509 E50.98323
G1 X43.095 Y77.031 E51.12752
G1 X44.135 Y74.548 E51.27042
G1 X45.131 Y71.962 E51.41752
G1 X46.022 Y69.438 E51.5596
G1 X46.855 Y66.846 E51.70413
G1 X47.619 Y64.219 E51.84935
G1 X48.301 Y61.597 E51.99317
G1 X48.91 Y58.957 E52.13699
G1 X49.451 Y56.257 E52.28316
G1 X49.909 Y53.587 E52.42696
G1 X50.291 Y50.908 E52.57061
G1 X50.596 Y48.212 E52.71464
G1 X50.827 Y45.509 E52.85864
G1 X50.981 Y42.791 E53.00316
G1 X51.059 Y40.035 E53.14951
G1 X51.069 Y38.667 E53.22213
G1 X51.069 Y35.72 E53.37857
G1 X51.081 Y35.011 E53.41621
G1 X51.144 Y34.415 E53.44802
G1 X51.27 Y33.919 E53.47519
G1 X51.518 Y33.326 E53.50931
M204 S3000
M205 X10 Y10
G0 F6000 X52.015 Y33.587
M204 S1000
M205 X8 Y8
G1 F2400 X52.288 Y33.153 E53.53652
G1 X52.625 Y32.768 E53.56369
G1 X53.017 Y32.44 E53.59082
G1 X53.456 Y32.176 E53.61801
G1 X53.931 Y31.984 E53.64521
G1 X54.429 Y31.869 E53.67234
G1 X54.926 Y31.824 E53.69883
G1 X150.249 Y31.823 E58.75888
G1 X150.947 Y31.833 E58.79593
G1 X151.457 Y31.881 E58.82312
G1 X151.953 Y32.007 E58.85029
G1 X152.423 Y32.208 E58.87742
G1 X152.857 Y32.481 E58.90464
G1 X153.242 Y32.817 E58.93177
G1 X153.571 Y33.209 E58.95893
G1 X153.835 Y33.648 E58.98613
G1 X154.027 Y34.123 E59.01332
G1 X154.143 Y34.621 E59.04046
G1 X154.188 Y35.12 E59.06706
G1 X154.189 Y38.656 E59.25476
G1 X154.229 Y41.45 E59.40309
G1 X154.344 Y44.161 E59.54713
G1 X154.538 Y46.908 E59.69331
G1 X154.809 Y49.638 E59.83894
G1 X155.153 Y52.326 E59.98279
G1 X155.577 Y55.022 E60.12767
G1 X156.078 Y57.719 E60.27328
G1 X156.657 Y60.412 E60.4195
G1 X157.305 Y63.055 E60.56395
G1 X158.03 Y65.691 E60.70908
G1 X158.829 Y68.301 E60.85397
G1 X159.71 Y70.912 E61.00025
G1 X160.648 Y73.455 E61.14413
G1 X161.681 Y76.026 E61.29121
G1 X162.758 Y78.502 E61.43454
G1 X163.922 Y80.984 E61.58006
G1 X165.164 Y83.452 E61.72672
G1 X166.47 Y85.869 E61.87256
G1 X167.793 Y88.164 E62.01318
G1 X169.264 Y90.556 E62.16224
G1 X170.759 Y92.839 E62.3071
G1 X172.316 Y95.074 E62.45169
G1 X173.939 Y97.271 E62.59669
G1 X175.647 Y99.45 E62.74366
G1 X177.367 Y101.521 E62.88656
G1 X179.177 Y103.58 E63.03209
G1 X181.063 Y105.607 E63.17906
G1 X183.232 Y107.803 E63.3429
G1 X183.563 Y108.194 E63.3701
G1 X183.828 Y108.632 E63.39727
G1 X184.022 Y109.105 E63.42441
G1 X184.14 Y109.603 E63.45158
G1 X184.189 Y110.138 E63.4801
G1 X184.189 Y139.408 E65.03384
G1 X184.18 Y140.135 E65.07244
G1 X184.133 Y140.644 E65.09957
G1 X184.008 Y141.141 E65.12677
G1 X183.808 Y141.612 E65.15394
G1 X183.536 Y142.046 E65.18113
G1 X183.201 Y142.432 E65.20826
G1 X182.809 Y142.761 E65.23542
G1 X182.371 Y143.026 E65.2626
G1 X181.897 Y143.219 E65.28976
G1 X181.398 Y143.336 E65.31697
G1 X180.893 Y143.382 E65.34389
G1 X25.574 Y143.383 E73.58871
G1 X24.876 Y143.374 E73.62577
G1 X24.366 Y143.327 E73.65296
G1 X23.87 Y143.202 E73.68011
G1 X23.399 Y143.001 E73.70729
G1 X22.965 Y142.729 E73.73448
G1 X22.579 Y142.393 E73.76165
G1 X22.25 Y142.001 E73.78881
G1 X21.985 Y141.563 E73.81599
G1 X21.793 Y141.089 E73.84314
G1 X21.676 Y140.591 E73.87029
G1 X21.63 Y140.084 E73.89731
G1 X21.629 Y110.763 E75.45377
G1 X21.639 Y110.06 E75.49109
G1 X21.687 Y109.551 E75.51823
G1 X21.812 Y109.055 E75.54538
G1 X22.014 Y108.584 E75.57258
G1 X22.286 Y108.151 E75.59973
G1 X22.594 Y107.793 E75.6248
G1 X23.819 Y106.562 E75.71698
G1 X25.688 Y104.61 E75.86044
G1 X27.546 Y102.557 E76.00742
G1 X29.314 Y100.489 E76.15185
G1 X31.014 Y98.383 E76.29552
G1 X32.704 Y96.161 E76.44371
G1 X34.277 Y93.97 E76.58689
G1 X35.816 Y91.691 E76.73286
G1 X37.274 Y89.396 E76.8772
G1 X38.69 Y87.018 E77.02411
G1 X40.005 Y84.666 E77.16715
G1 X41.278 Y82.226 E77.31324
G1 X42.481 Y79.754 E77.45918
G1 X43.612 Y77.247 E77.60517
G1 X44.652 Y74.764 E77.74807
G1 X45.654 Y72.163 E77.89603
G1 X46.55 Y69.624 E78.03896
G1 X47.393 Y67.002 E78.18516
G1 X48.157 Y64.375 E78.33039
G1 X48.847 Y61.723 E78.47585
G1 X49.456 Y59.083 E78.61967
G1 X50 Y56.367 E78.76671
G1 X50.461 Y53.682 E78.91132
G1 X50.845 Y50.987 E79.05582
G1 X51.154 Y48.26 E79.20151
G1 X51.385 Y45.557 E79.34552
G1 X51.541 Y42.807 E79.49173
G1 X51.619 Y40.051 E79.63808
G1 X51.629 Y38.671 E79.71134
G1 X51.629 Y35.728 E79.86757
G1 X51.639 Y35.063 E79.90287
G1 X51.687 Y34.553 E79.93006
G1 X51.813 Y34.057 E79.95723
G1 X52.015 Y33.587 E79.98438
M204 S3000
M205 X10 Y10
G1 F2400 E73.98438
;MESH:Radarkasten-V02.stl
G0 F6000 X54.244 Y35.527
G0 X55.333 Y35.527
G0 X150.471 Y135.541
G0 X176.339 Y136.013
G0 X176.339 Y135.822
M204 S1000
M205 X8 Y8
;TYPE:WALL-INNER
G1 F2400 E79.98438
G1 F2700 X176.136 Y135.909 E79.99611
G1 X175.908 Y135.94 E80.00832
G1 X150.908 Y135.94 E81.3354
G1 X150.635 Y135.895 E81.35009
G1 X150.404 Y135.772 E81.36398
G1 X150.236 Y135.604 E81.37659
G1 X150.068 Y135.208 E81.39943
G1 X150.068 Y35.94 E86.66889
G1 X55.748 Y35.94 E91.67569
G1 X55.748 Y135.208 E96.94515
G1 X55.58 Y135.604 E96.96799
G1 X55.412 Y135.773 E96.98064
G1 X55.181 Y135.895 E96.9945
G1 X54.908 Y135.94 E97.00919
G1 X29.908 Y135.94 E98.33627
G1 X29.68 Y135.909 E98.34848
G1 X29.476 Y135.822 E98.36026
G1 X29.186 Y135.531 E98.38207
G1 X29.099 Y135.328 E98.39379
G1 X29.068 Y135.1 E98.406
G1 X29.068 Y110.94 E99.68849
G1 X25.748 Y110.94 E99.86473
G1 X25.748 Y139.26 E101.36805
G1 X180.068 Y139.26 E109.55984
G1 X180.068 Y110.94 E111.06316
G1 X176.748 Y110.94 E111.23939
G1 X176.748 Y135.1 E112.52188
G1 X176.717 Y135.328 E112.5341
G1 X176.63 Y135.531 E112.54582
G1 X176.339 Y135.822 E112.56767
M204 S3000
M205 X10 Y10
G0 F6000 X176.188 Y135.153
M204 S1000
M205 X8 Y8
;TYPE:WALL-OUTER
G1 F2700 X176.052 Y135.341 E112.57998
G1 X175.961 Y135.38 E112.58524
G1 X150.838 Y135.38 E113.91885
G1 X150.684 Y135.268 E113.92896
G1 X150.632 Y135.151 E113.93575
G1 X150.628 Y35.38 E119.23191
G1 X55.188 Y35.38 E124.29817
G1 X55.184 Y135.151 E129.59433
G1 X55.076 Y135.325 E129.6052
G1 X54.957 Y135.376 E129.61208
G1 X29.855 Y135.38 E130.94457
G1 X29.667 Y135.244 E130.95689
G1 X29.628 Y135.153 E130.96214
G1 X29.628 Y110.38 E132.27717
G1 X25.188 Y110.38 E132.51286
G1 X25.188 Y139.82 E134.07563
G1 X180.628 Y139.82 E142.32688
G1 X180.628 Y110.38 E143.88965
G1 X176.188 Y110.38 E144.12534
G1 X176.188 Y135.153 E145.44037
M204 S3000
M205 X10 Y10
G0 F6000 X176.071 Y135.315
G0 X176.071 Y136.013
G0 X176.584 Y136.301
M204 S1000
M205 X8 Y8
;TYPE:SKIN
G1 F2700 X176.904 Y136.05 E145.46196
G1 X177.11 Y135.776 E145.48015
G1 X177.245 Y135.445 E145.49913
G1 X177.286 Y135.134 E145.51578
G1 X177.288 Y111.48 E146.77141
G1 X179.528 Y111.48 E146.89032
G1 X179.528 Y138.72 E148.3363
G1 X26.288 Y138.72 E156.47077
G1 X26.288 Y111.48 E157.91675
G1 X28.528 Y111.48 E158.03566
G1 X28.53 Y135.138 E159.2915
G1 X28.572 Y135.445 E159.30795
G1 X28.742 Y135.836 E159.33058
G1 X28.93 Y136.075 E159.34672
G1 X29.228 Y136.302 E159.36661
G1 X29.496 Y136.417 E159.38209
G1 X29.87 Y136.478 E159.4022
G1 X54.951 Y136.477 E160.73358
G1 X55.311 Y136.417 E160.75296
G1 X55.699 Y136.228 E160.77587
G1 X55.988 Y135.953 E160.79704
G1 X56.166 Y135.666 E160.81497
G1 X56.288 Y135.286 E160.83616
G1 X56.288 Y36.48 E166.08109
G1 X149.528 Y36.48 E171.03057
G1 X149.528 Y135.24 E176.27306
G1 X149.618 Y135.597 E176.29261
G1 X149.781 Y135.896 E176.31068
G1 X150.049 Y136.179 E176.33137
G1 X150.41 Y136.387 E176.35349
G1 X150.866 Y136.477 E176.37816
G1 X175.942 Y136.478 E177.70928
G1 X176.253 Y136.436 E177.72593
G1 X176.584 Y136.301 E177.74491
M204 S3000
M205 X10 Y10
G0 F6000 X150.071 Y135.941
G0 X148.427 Y36.76
M204 S1000
M205 X8 Y8
G1 F2700 X149.248 Y37.582 E177.80658
M204 S3000
M205 X10 Y10
G0 F6000 X149.248 Y38.374
M204 S1000
M205 X8 Y8
G1 F2700 X147.635 Y36.76 E177.92771
M204 S3000
M205 X10 Y10
G0 F6000 X146.843 Y36.76
M204 S1000
M205 X8 Y8
G1 F2700 X149.248 Y39.166 E178.10829
M204 S3000
M205 X10 Y10
G0 F6000 X149.248 Y39.958
M204 S1000
M205 X8 Y8
G1 F2700 X146.051 Y36.76 E178.34833
M204 S3000
M205 X10 Y10
G0 F6000 X145.259 Y36.76
M204 S1000
M205 X8 Y8
G1 F2700 X149.248 Y40.75 E178.64783
M204 S3000
M205 X10 Y10
G0 F6000 X149.248 Y41.542
M204 S1000
M205 X8 Y8
G1 F2700 X144.467 Y36.76 E179.00678
M204 S3000
M205 X10 Y10
G0 F6000 X143.675 Y36.76
M204 S1000
M205 X8 Y8
G1 F2700 X149.248 Y42.334 E179.42519
M204 S3000
M205 X10 Y10
G0 F6000 X149.248 Y43.126
M204 S1000
M205 X8 Y8
G1 F2700 X142.883 Y36.76 E179.90305
M204 S3000
M205 X10 Y10
G0 F6000 X142.091 Y36.76
M204 S1000
M205 X8 Y8
G1 F2700 X149.248 Y43.918 E180.44037
M204 S3000
M205 X10 Y10
G0 F6000 X149.248 Y44.71
M204 S1000
M205 X8 Y8
G1 F2700 X141.299 Y36.76 E181.03715
M204 S3000
M205 X10 Y10
G0 F6000 X140.507 Y36.76
M204 S1000
M205 X8 Y8
G1 F2700 X149.248 Y45.502 E181.69338
M204 S3000
M205 X10 Y10
G0 F6000 X149.248 Y46.294
M204 S1000
M205 X8 Y8
G1 F2700 X139.715 Y36.76 E182.40907
M204 S3000
M205 X10 Y10
G0 F6000 X138.923 Y36.76
M204 S1000
M205 X8 Y8
G1 F2700 X149.248 Y47.086 E183.18421
M204 S3000
M205 X10 Y10
G0 F6000 X149.248 Y47.877
M204 S1000
M205 X8 Y8
G1 F2700 X138.131 Y36.76 E184.01878
M204 S3000
M205 X10 Y10
G0 F6000 X137.339 Y36.76
M204 S1000
M205 X8 Y8
G1 F2700 X149.248 Y48.669 E184.9128
M204 S3000
M205 X10 Y10
G0 F6000 X149.248 Y49.461
M204 S1000
M205 X8 Y8
G1 F2700 X136.547 Y36.76 E185.86627
M204 S3000
M205 X10 Y10
G0 F6000 X135.755 Y36.76
