;FLAVOR:Marlin
;TIME:13602
;Filament used: 19.4091m
;Layer height: 0.2
;MINX:31.828
;MINY:249.001
;MINZ:0.2
;MAXX:197.628
;MAXY:362.801
;MAXZ:50
;TARGET_MACHINE.NAME:Anycubic Kobra Max
;Generated with Cura_SteamEngine 5.10.0
M140 S60
M105
M190 S60
M104 S195
M105
M109 S195
G28 ;Home
G1 Z15.0 F1200 ;Move the platform down 15mm
;Prime the extruder
G92 E0
G1 F200 E3
G92 E0
M82 ;absolute extrusion mode
G92 E0
G92 E0
G1 F2400 E-6
;LAYER_COUNT:250
;LAYER:0
M107
M204 S3000
M205 X10 Y10
G1 F1200 Z0.275
G0 F6000 X64.913 Y249.209 Z0.275
M204 S1000
M205 X8 Y8
;TYPE:SKIRT
G1 F1200 Z0.2
G1 F2400 E0
G1 X65.577 Y249.062 E0.0361
G1 X66.145 Y249.006 E0.0664
G1 X162.585 Y249.001 E5.18574
G1 X163.377 Y249.016 E5.22779
G1 X163.973 Y249.079 E5.2596
G1 X164.636 Y249.249 E5.29594
G1 X165.309 Y249.538 E5.33482
G1 X165.917 Y249.939 E5.37348
G1 X166.396 Y250.366 E5.40754
G1 X166.85 Y250.929 E5.44593
G1 X167.151 Y251.441 E5.47746
G1 X167.416 Y252.077 E5.51403
G1 X167.578 Y252.819 E5.55435
G1 X167.623 Y253.318 E5.58095
G1 X167.628 Y256.954 E5.77396
G1 X167.668 Y259.732 E5.92144
G1 X167.781 Y262.381 E6.06218
G1 X167.975 Y265.128 E6.20836
G1 X168.238 Y267.794 E6.35057
G1 X168.578 Y270.45 E6.49271
G1 X168.998 Y273.116 E6.63598
G1 X169.497 Y275.813 E6.78157
G1 X170.064 Y278.444 E6.92444
G1 X170.704 Y281.055 E7.06714
G1 X171.429 Y283.691 E7.21227
G1 X172.21 Y286.241 E7.35383
G1 X173.091 Y288.852 E7.50011
G1 X174.007 Y291.335 E7.6406
G1 X175.028 Y293.878 E7.78606
G1 X176.091 Y296.324 E7.92764
G1 X177.241 Y298.778 E8.0715
G1 X178.469 Y301.218 E8.2165
G1 X179.759 Y303.607 E8.36062
G1 X181.082 Y305.902 E8.50124
G1 X182.52 Y308.24 E8.64694
G1 X184.005 Y310.51 E8.79094
G1 X185.535 Y312.706 E8.93301
G1 X187.14 Y314.879 E9.07641
G1 X188.828 Y317.032 E9.22164
G1 X190.528 Y319.079 E9.36289
G1 X192.338 Y321.138 E9.50841
G1 X194.179 Y323.118 E9.65193
G1 X196.377 Y325.346 E9.81807
G1 X196.823 Y325.882 E9.85508
G1 X197.186 Y326.51 E9.89359
G1 X197.407 Y327.067 E9.9254
G1 X197.575 Y327.799 E9.96526
G1 X197.624 Y328.334 E9.99378
G1 X197.628 Y357.721 E11.55374
G1 X197.615 Y358.535 E11.59695
G1 X197.555 Y359.124 E11.62838
G1 X197.415 Y359.707 E11.66021
G1 X197.123 Y360.433 E11.70174
G1 X196.697 Y361.083 E11.743
G1 X196.299 Y361.531 E11.77481
G1 X195.773 Y361.971 E11.81121
G1 X195.112 Y362.362 E11.85198
G1 X194.556 Y362.588 E11.88384
G1 X193.819 Y362.75 E11.92389
G1 X193.314 Y362.796 E11.95081
G1 X36.878 Y362.801 E20.25493
G1 X36.093 Y362.788 E20.29661
G1 X35.583 Y362.741 E20.3238
G1 X34.838 Y362.561 E20.36448
G1 X34.284 Y362.332 E20.3963
G1 X33.695 Y361.98 E20.43273
G1 X33.133 Y361.511 E20.47158
G1 X32.715 Y361.024 E20.50565
G1 X32.326 Y360.409 E20.54428
G1 X32.042 Y359.73 E20.58335
G1 X31.879 Y358.991 E20.62352
G1 X31.833 Y358.484 E20.65054
G1 X31.828 Y329.044 E22.21331
G1 X31.842 Y328.252 E22.25536
G1 X31.89 Y327.743 E22.2825
G1 X32.066 Y326.993 E22.32339
G1 X32.303 Y326.44 E22.35533
G1 X32.706 Y325.786 E22.39611
G1 X33.119 Y325.301 E22.42992
G1 X34.344 Y324.07 E22.52211
G1 X36.177 Y322.156 E22.66279
G1 X38.013 Y320.127 E22.80805
G1 X39.781 Y318.059 E22.95247
G1 X41.461 Y315.977 E23.09448
G1 X43.131 Y313.781 E23.24093
G1 X44.686 Y311.614 E23.38252
G1 X46.189 Y309.389 E23.52505
G1 X47.647 Y307.094 E23.66938
G1 X49.039 Y304.756 E23.81382
G1 X50.338 Y302.432 E23.95515
G1 X51.597 Y300.02 E24.09958
G1 X52.786 Y297.577 E24.2438
G1 X53.903 Y295.099 E24.38809
G1 X54.937 Y292.63 E24.53018
G1 X55.927 Y290.059 E24.67643
G1 X56.813 Y287.55 E24.81767
G1 X57.636 Y284.988 E24.96052
G1 X58.4 Y282.361 E25.10574
G1 X59.074 Y279.769 E25.24791
G1 X59.683 Y277.129 E25.39173
G1 X60.221 Y274.445 E25.53704
G1 X60.676 Y271.79 E25.68003
G1 X61.056 Y269.127 E25.82282
G1 X61.357 Y266.462 E25.96519
G1 X61.588 Y263.759 E26.1092
G1 X61.74 Y261.073 E26.25201
G1 X61.818 Y258.317 E26.39836
G1 X61.828 Y256.961 E26.47034
G1 X61.828 Y254.009 E26.62705
G1 X61.843 Y253.25 E26.66734
G1 X61.92 Y252.575 E26.70341
G1 X62.072 Y252.001 E26.73493
G1 X62.338 Y251.365 E26.77152
G1 X62.707 Y250.789 E26.80783
G1 X63.155 Y250.264 E26.84447
G1 X63.758 Y249.778 E26.88558
G1 X64.27 Y249.477 E26.91711
G1 X64.913 Y249.209 E26.95409
M204 S3000
M205 X10 Y10
G0 F6000 X65.083 Y249.745
M204 S1000
M205 X8 Y8
G1 F2400 X65.698 Y249.609 E26.98752
G1 X66.195 Y249.564 E27.01401
G1 X162.576 Y249.561 E32.13022
G1 X163.318 Y249.573 E32.16961
G1 X163.914 Y249.636 E32.20143
G1 X164.492 Y249.79 E32.23318
G1 X165.04 Y250.032 E32.26498
G1 X165.544 Y250.357 E32.29681
G1 X165.99 Y250.755 E32.32855
G1 X166.37 Y251.218 E32.36034
G1 X166.634 Y251.657 E32.38753
G1 X166.881 Y252.249 E32.42158
G1 X167.02 Y252.869 E32.45531
G1 X167.065 Y253.368 E32.48191
G1 X167.068 Y256.954 E32.67227
G1 X167.108 Y259.74 E32.82017
G1 X167.222 Y262.42 E32.96256
G1 X167.416 Y265.167 E33.10874
G1 X167.683 Y267.865 E33.25266
G1 X168.025 Y270.537 E33.39566
G1 X168.447 Y273.218 E33.53973
G1 X168.947 Y275.915 E33.68533
G1 X169.52 Y278.577 E33.82988
G1 X170.164 Y281.204 E33.97345
G1 X170.889 Y283.84 E34.11858
G1 X171.679 Y286.42 E34.26181
G1 X172.56 Y289.031 E34.40809
G1 X173.487 Y291.544 E34.55027
G1 X174.514 Y294.101 E34.69654
G1 X175.584 Y296.562 E34.83899
G1 X176.741 Y299.03 E34.98368
G1 X177.976 Y301.484 E35.12952
G1 X179.274 Y303.887 E35.2745
G1 X180.597 Y306.182 E35.41511
G1 X182.051 Y308.547 E35.56248
G1 X183.537 Y310.817 E35.70651
G1 X185.085 Y313.039 E35.85026
G1 X186.699 Y315.224 E35.99446
G1 X188.397 Y317.39 E36.14055
G1 X190.107 Y319.449 E36.28263
G1 X191.917 Y321.508 E36.42816
G1 X193.78 Y323.511 E36.57336
G1 X195.978 Y325.739 E36.7395
G1 X196.361 Y326.202 E36.7714
G1 X196.665 Y326.717 E36.80314
G1 X196.886 Y327.274 E36.83495
G1 X197.017 Y327.85 E36.86631
G1 X197.066 Y328.385 E36.89483
G1 X197.068 Y357.713 E38.45165
G1 X197.057 Y358.484 E38.49258
G1 X197.01 Y358.993 E38.51972
G1 X196.87 Y359.576 E38.55154
G1 X196.624 Y360.173 E38.58582
G1 X196.278 Y360.711 E38.61977
G1 X195.88 Y361.159 E38.65158
G1 X195.418 Y361.538 E38.6833
G1 X194.901 Y361.843 E38.71517
G1 X194.387 Y362.052 E38.74462
G1 X193.768 Y362.192 E38.77831
G1 X193.263 Y362.238 E38.80523
G1 X36.886 Y362.241 E47.10622
G1 X36.144 Y362.23 E47.14561
G1 X35.634 Y362.183 E47.1728
G1 X35.052 Y362.043 E47.20457
G1 X34.498 Y361.814 E47.23639
G1 X33.987 Y361.502 E47.26817
G1 X33.53 Y361.113 E47.30003
G1 X33.14 Y360.659 E47.3318
G1 X32.825 Y360.151 E47.36353
G1 X32.577 Y359.558 E47.39765
G1 X32.437 Y358.94 E47.43129
G1 X32.391 Y358.433 E47.45831
G1 X32.388 Y329.053 E49.0179
G1 X32.4 Y328.305 E49.05761
G1 X32.448 Y327.796 E49.08475
G1 X32.598 Y327.173 E49.11876
G1 X32.818 Y326.661 E49.14834
G1 X33.18 Y326.084 E49.1845
G1 X33.516 Y325.696 E49.21175
G1 X34.741 Y324.465 E49.30394
G1 X36.592 Y322.532 E49.446
G1 X38.439 Y320.491 E49.59212
G1 X40.207 Y318.423 E49.73655
G1 X41.897 Y316.329 E49.87939
G1 X43.577 Y314.12 E50.02671
G1 X45.141 Y311.941 E50.16909
G1 X46.662 Y309.689 E50.31334
G1 X48.12 Y307.394 E50.45768
G1 X49.528 Y305.029 E50.60378
G1 X50.835 Y302.691 E50.74597
G1 X52.093 Y300.279 E50.89037
G1 X53.297 Y297.807 E51.03633
G1 X54.414 Y295.329 E51.18062
G1 X55.454 Y292.846 E51.32352
G1 X56.45 Y290.26 E51.47062
G1 X57.341 Y287.736 E51.6127
G1 X58.174 Y285.144 E51.75723
G1 X58.938 Y282.517 E51.90245
G1 X59.62 Y279.895 E52.04627
G1 X60.229 Y277.255 E52.19009
G1 X60.77 Y274.555 E52.33626
G1 X61.228 Y271.885 E52.48006
G1 X61.61 Y269.206 E52.62371
G1 X61.915 Y266.51 E52.76774
G1 X62.146 Y263.807 E52.91174
G1 X62.3 Y261.089 E53.05626
G1 X62.378 Y258.333 E53.20261
G1 X62.388 Y256.965 E53.27523
G1 X62.388 Y254.018 E53.43167
G1 X62.4 Y253.309 E53.46931
G1 X62.463 Y252.713 E53.50112
G1 X62.589 Y252.217 E53.52829
G1 X62.837 Y251.624 E53.56241
G1 X63.133 Y251.153 E53.59194
G1 X63.549 Y250.666 E53.62594
G1 X64.047 Y250.258 E53.66011
G1 X64.486 Y249.994 E53.6873
G1 X65.083 Y249.745 E53.72164
M204 S3000
M205 X10 Y10
G0 F6000 X65.25 Y250.282
M204 S1000
M205 X8 Y8
G1 F2400 X65.748 Y250.167 E53.74877
G1 X66.245 Y250.122 E53.77526
G1 X162.568 Y250.121 E58.88839
G1 X163.266 Y250.131 E58.92545
G1 X163.776 Y250.179 E58.95264
G1 X164.272 Y250.305 E58.97981
G1 X164.742 Y250.506 E59.00694
G1 X165.176 Y250.779 E59.03416
G1 X165.561 Y251.115 E59.06128
G1 X165.89 Y251.507 E59.08845
G1 X166.154 Y251.946 E59.11564
G1 X166.346 Y252.421 E59.14284
G1 X166.462 Y252.919 E59.16998
G1 X166.507 Y253.418 E59.19658
G1 X166.508 Y256.954 E59.38428
G1 X166.548 Y259.748 E59.53261
G1 X166.663 Y262.459 E59.67665
G1 X166.857 Y265.206 E59.82283
G1 X167.128 Y267.936 E59.96846
G1 X167.472 Y270.624 E60.11231
G1 X167.896 Y273.32 E60.25718
G1 X168.397 Y276.017 E60.4028
G1 X168.976 Y278.71 E60.54902
G1 X169.624 Y281.353 E60.69347
G1 X170.349 Y283.989 E60.83859
G1 X171.148 Y286.599 E60.98349
G1 X172.029 Y289.21 E61.12976
G1 X172.967 Y291.753 E61.27365
G1 X174 Y294.324 E61.42073
G1 X175.077 Y296.8 E61.56406
G1 X176.241 Y299.282 E61.70958
G1 X177.483 Y301.75 E61.85624
G1 X178.789 Y304.167 E62.00208
G1 X180.112 Y306.462 E62.14269
G1 X181.583 Y308.854 E62.29176
G1 X183.078 Y311.137 E62.43662
G1 X184.635 Y313.372 E62.58121
G1 X186.258 Y315.569 E62.72621
G1 X187.966 Y317.748 E62.87317
G1 X189.686 Y319.819 E63.01608
G1 X191.496 Y321.878 E63.1616
G1 X193.382 Y323.905 E63.30858
G1 X195.551 Y326.101 E63.47242
G1 X195.882 Y326.492 E63.49961
G1 X196.147 Y326.93 E63.52679
G1 X196.341 Y327.403 E63.55393
G1 X196.459 Y327.901 E63.5811
G1 X196.508 Y328.436 E63.60961
G1 X196.508 Y357.706 E65.16336
G1 X196.499 Y358.433 E65.20195
G1 X196.452 Y358.942 E65.22909
G1 X196.327 Y359.439 E65.25629
G1 X196.127 Y359.91 E65.28345
G1 X195.855 Y360.344 E65.31064
G1 X195.52 Y360.73 E65.33777
G1 X195.128 Y361.059 E65.36494
G1 X194.69 Y361.324 E65.39211
G1 X194.216 Y361.517 E65.41928
G1 X193.717 Y361.634 E65.44649
G1 X193.212 Y361.68 E65.47341
G1 X36.893 Y361.681 E73.77132
G1 X36.195 Y361.672 E73.80837
G1 X35.685 Y361.625 E73.83556
G1 X35.189 Y361.5 E73.86271
G1 X34.718 Y361.299 E73.88989
G1 X34.284 Y361.027 E73.91708
G1 X33.898 Y360.691 E73.94425
G1 X33.569 Y360.299 E73.97141
G1 X33.304 Y359.861 E73.99859
G1 X33.112 Y359.387 E74.02574
G1 X32.995 Y358.889 E74.05289
G1 X32.949 Y358.382 E74.07991
G1 X32.948 Y329.061 E75.63637
G1 X32.958 Y328.358 E75.67369
G1 X33.006 Y327.849 E75.70083
G1 X33.131 Y327.353 E75.72798
G1 X33.333 Y326.882 E75.75518
G1 X33.605 Y326.449 E75.78233
G1 X33.913 Y326.091 E75.8074
G1 X35.138 Y324.86 E75.89958
G1 X37.007 Y322.908 E76.04304
G1 X38.865 Y320.855 E76.19002
G1 X40.633 Y318.787 E76.33445
G1 X42.333 Y316.681 E76.47812
G1 X44.023 Y314.459 E76.62631
G1 X45.596 Y312.268 E76.76949
G1 X47.135 Y309.989 E76.91546
G1 X48.593 Y307.694 E77.0598
G1 X50.009 Y305.316 E77.20671
G1 X51.324 Y302.964 E77.34975
G1 X52.597 Y300.524 E77.49584
G1 X53.8 Y298.052 E77.64178
G1 X54.931 Y295.545 E77.78777
G1 X55.971 Y293.062 E77.93067
G1 X56.973 Y290.461 E78.07863
G1 X57.869 Y287.922 E78.22156
G1 X58.712 Y285.3 E78.36776
G1 X59.476 Y282.673 E78.51299
G1 X60.166 Y280.021 E78.65845
G1 X60.775 Y277.381 E78.80227
G1 X61.319 Y274.665 E78.94931
G1 X61.78 Y271.98 E79.09392
G1 X62.164 Y269.285 E79.23842
G1 X62.473 Y266.558 E79.38411
G1 X62.704 Y263.855 E79.52812
G1 X62.86 Y261.105 E79.67433
G1 X62.938 Y258.349 E79.82069
G1 X62.948 Y256.969 E79.89394
G1 X62.948 Y254.026 E80.05017
G1 X62.958 Y253.361 E80.08547
G1 X63.006 Y252.851 E80.11266
G1 X63.132 Y252.355 E80.13983
G1 X63.334 Y251.885 E80.16698
G1 X63.607 Y251.451 E80.1942
G1 X63.944 Y251.066 E80.22136
G1 X64.336 Y250.738 E80.24849
G1 X64.775 Y250.474 E80.27569
G1 X65.25 Y250.282 E80.30288
M204 S3000
M205 X10 Y10
G1 F2400 E74.30288
;MESH:Radarkasten-V02.stl
G0 F6000 X66.652 Y252.736
G0 X66.652 Y253.825
G0 X162.79 Y353.839
G0 X188.659 Y354.311
G0 X188.659 Y354.122
M204 S1000
M205 X8 Y8
;TYPE:WALL-INNER
G1 F2400 E80.30288
G1 F2700 X188.456 Y354.209 E80.31461
G1 X188.228 Y354.24 E80.32682
G1 X163.228 Y354.24 E81.6539
G1 X162.955 Y354.195 E81.66859
G1 X162.724 Y354.072 E81.68248
G1 X162.556 Y353.904 E81.69509
G1 X162.388 Y353.508 E81.71793
G1 X162.388 Y254.24 E86.98739
G1 X67.068 Y254.24 E92.04727
G1 X67.068 Y353.508 E97.31673
G1 X66.9 Y353.904 E97.33957
G1 X66.732 Y354.073 E97.35222
G1 X66.501 Y354.195 E97.36609
G1 X66.228 Y354.24 E97.38077
G1 X41.228 Y354.24 E98.70785
G1 X41 Y354.209 E98.72007
G1 X40.796 Y354.122 E98.73184
G1 X40.506 Y353.831 E98.75365
G1 X40.419 Y353.628 E98.76537
G1 X40.388 Y353.4 E98.77759
G1 X40.388 Y329.24 E100.06008
G1 X37.068 Y329.24 E100.23631
G1 X37.068 Y357.56 E101.73963
G1 X192.388 Y357.56 E109.98451
G1 X192.388 Y329.24 E111.48782
G1 X189.068 Y329.24 E111.66406
G1 X189.068 Y353.4 E112.94655
G1 X189.037 Y353.628 E112.95876
G1 X188.95 Y353.831 E112.97049
G1 X188.659 Y354.122 E112.99233
M204 S3000
M205 X10 Y10
G0 F6000 X188.508 Y353.453
M204 S1000
M205 X8 Y8
;TYPE:WALL-OUTER
G1 F2700 X188.372 Y353.641 E113.00465
G1 X188.281 Y353.68 E113.0099
G1 X163.158 Y353.68 E114.34351
G1 X163.004 Y353.568 E114.35362
G1 X162.952 Y353.451 E114.36042
G1 X162.948 Y253.68 E119.65658
G1 X66.508 Y253.68 E124.77592
G1 X66.504 Y353.451 E130.07208
G1 X66.396 Y353.625 E130.08295
G1 X66.277 Y353.676 E130.08983
G1 X41.175 Y353.68 E131.42232
G1 X40.987 Y353.544 E131.43464
G1 X40.948 Y353.453 E131.43989
G1 X40.948 Y328.68 E132.75492
G1 X36.508 Y328.68 E132.99061
G1 X36.508 Y358.12 E134.55338
G1 X192.948 Y358.12 E142.85771
G1 X192.948 Y328.68 E144.42048
G1 X188.508 Y328.68 E144.65617
G1 X188.508 Y353.453 E145.9712
M204 S3000
M205 X10 Y10
G0 F6000 X188.391 Y353.615
G0 X188.391 Y354.311
G0 X188.904 Y354.601
M204 S1000
M205 X8 Y8
;TYPE:SKIN
G1 F2700 X189.224 Y354.35 E145.99279
G1 X189.43 Y354.076 E146.01098
G1 X189.565 Y353.745 E146.02996
G1 X189.606 Y353.434 E146.04661
G1 X189.608 Y329.78 E147.30224
G1 X191.848 Y329.78 E147.42115
G1 X191.848 Y357.02 E148.86713
G1 X37.608 Y357.02 E157.05468
G1 X37.608 Y329.78 E158.50067
G1 X39.848 Y329.78 E158.61957
G1 X39.85 Y353.438 E159.87542
G1 X39.892 Y353.745 E159.89186
G1 X40.062 Y354.136 E159.9145
G1 X40.25 Y354.375 E159.93064
G1 X40.548 Y354.602 E159.95052
G1 X40.816 Y354.717 E159.966
G1 X41.19 Y354.778 E159.98612
G1 X66.271 Y354.777 E161.3175
G1 X66.631 Y354.717 E161.33687
G1 X67.019 Y354.528 E161.35978
G1 X67.308 Y354.253 E161.38096
G1 X67.486 Y353.966 E161.39889
G1 X67.608 Y353.586 E161.42007
G1 X67.608 Y254.78 E166.66501
G1 X161.848 Y254.78 E171.66757
G1 X161.848 Y353.54 E176.91006
G1 X161.938 Y353.897 E176.9296
G1 X162.101 Y354.196 E176.94768
G1 X162.369 Y354.479 E176.96837
G1 X162.73 Y354.687 E176.99049
G1 X163.186 Y354.777 E177.01516
G1 X188.262 Y354.778 E178.34627
G1 X188.573 Y354.736 E178.36293
G1 X188.904 Y354.601 E178.38191
M204 S3000
M205 X10 Y10
G0 F6000 X162.39 Y354.239
G0 X160.817 Y255.06
M204 S1000
M205 X8 Y8
G1 F2700 X161.568 Y255.811 E178.43829
M204 S3000
M205 X10 Y10
G0 F6000 X161.568 Y256.603
M204 S1000
M205 X8 Y8
G1 F2700 X160.025 Y255.06 E178.55412
M204 S3000
M205 X10 Y10
G0 F6000 X159.233 Y255.06
M204 S1000
M205 X8 Y8
G1 F2700 X161.568 Y257.395 E178.72941
M204 S3000
M205 X10 Y10
G0 F6000 X161.568 Y258.187
M204 S1000
M205 X8 Y8
G1 F2700 X158.441 Y255.06 E178.96416
M204 S3000
M205 X10 Y10
G0 F6000 X157.649 Y255.06
M204 S1000
M205 X8 Y8
G1 F2700 X161.568 Y258.979 E179.25836
M204 S3000
M205 X10 Y10
G0 F6000 X161.568 Y259.771
M204 S1000
M205 X8 Y8
G1 F2700 X156.857 Y255.06 E179.61202
M204 S3000
M205 X10 Y10
G0 F6000 X156.066 Y255.06
M204 S1000
M205 X8 Y8
G1 F2700 X161.568 Y260.562 E180.02506
M204 S3000
M205 X10 Y10
G0 F6000 X161.568 Y261.354
M204 S1000
M205 X8 Y8
G1 F2700 X155.274 Y255.06 E180.49756
M204 S3000
M205 X10 Y10
G0 F6000 X154.482 Y255.06
M204 S1000
M205 X8 Y8
G1 F2700 X161.568 Y262.146 E181.02951
M204 S3000
M205 X10 Y10
G0 F6000 X161.568 Y262.938
M204 S1000
M205 X8 Y8
G1 F2700 X153.69 Y255.06 E181.62092
M204 S3000
M205 X10 Y10
G0 F6000 X152.898 Y255.06
M204 S1000
M205 X8 Y8
G1 F2700 X161.568 Y263.73 E182.27178
M204 S3000
M205 X10 Y10
G0 F6000 X161.568 Y264.522
M204 S1000
M205 X8 Y8
G1 F2700 X152.106 Y255.06 E182.98211
M204 S3000
M205 X10 Y10
G0 F6000 X151.314 Y255.06
M204 S1000
M205 X8 Y8
G1 F2700 X161.568 Y265.314 E183.75188
M204 S3000
M205 X10 Y10
G0 F6000 X161.568 Y266.106
M204 S1000
M205 X8 Y8
G1 F2700 X150.522 Y255.06 E184.58112
M204 S3000
M205 X10 Y10
